static/images/mobile/copyright/wikipedia-wordmark-tr.svg

<?xml version="1.0" encoding="UTF-8"?>
<svg xmlns="http://www.w3.org/2000/svg" width="107" height="18" viewBox="0 0 107 18">
	<title>
		Shape
	</title>
	<g id="Page-1" fill="none" fill-rule="evenodd" stroke="none" stroke-width="1">
		<path id="Shape" fill="#000" fill-rule="nonzero" d="M79.4720646,5.26586484 C79.5222157,5.26586484 79.5472913,5.29194341 79.5472913,5.34710962 L79.5833621,5.53662519 C79.6811435,6.11489216 79.9168332,7.77958095 80.0036662,8.56881588 C79.8010558,8.67613922 79.5723668,8.73130542 79.3186023,8.70422383 L79.1507548,8.15658564 C78.760546,6.95188193 78.3366439,6.26688067 76.9604979,6.26688067 L75.0076143,6.26688067 C74.5261638,6.26688067 74.1951666,6.56477817 74.1951666,7.02516521 L74.1951666,10.8697481 L75.6405211,10.8697481 L75.993519,10.860143 C77.4064946,10.8000073 77.343294,10.4848026 77.3907943,9.35317898 C77.517175,9.21777103 77.97355,9.21777103 78.1009337,9.35317898 L78.0620177,10.4140194 C78.0545696,10.6757554 78.0497796,10.9509928 78.0497796,11.2759719 L78.0553591,11.8621344 C78.0641904,12.3105992 78.0823062,12.6919522 78.1009337,13.252928 C77.97355,13.388336 77.517175,13.388336 77.3907943,13.252928 L77.3714183,12.8397711 C77.3279176,12.1097431 77.1742158,11.736359 75.6405211,11.736359 L74.1971726,11.736359 L74.1971726,15.7965915 C74.1971726,16.3111417 74.5522423,16.9881815 75.0096203,16.9881815 L77.1149632,16.9881815 C78.7127771,16.9881815 79.4479921,15.634102 79.853213,14.0372911 C80.132053,13.9560464 80.3346635,14.0112126 80.5633524,14.1456175 C80.3858176,15.2830443 80.1069775,16.7715288 79.8020588,17.881874 L77.9190247,17.8354601 C77.6342579,17.8307813 77.3554019,17.8277108 77.1139602,17.8277108 L72.9621451,17.8315894 C72.4375448,17.8400206 71.1899762,17.8609473 70.3676351,17.881874 C70.2161788,17.7193844 70.2161788,17.150671 70.3676351,16.9881815 L70.7819413,16.9483795 C71.9656525,16.8167681 72.1931349,16.5540995 72.1931349,14.5247598 L72.1931349,8.67613922 C72.1931349,6.42937022 71.9142948,6.32104386 70.3676351,6.21271749 C70.2161788,6.05022795 70.2161788,5.48151455 70.3676351,5.319025 L73.1421172,5.37253709 L73.1421172,5.37253709 L78.431931,5.37318818 C78.93946,5.37318818 79.1169949,5.319025 79.4720646,5.26586484 Z M16.3334765,0 C16.4859359,0.161486522 16.4859359,0.731202947 16.3334765,0.893692491 C14.8777865,1.08208616 14.4368741,1.87798118 14.0267604,2.92458632 L8.59917487,17.2198795 C8.45173066,17.607046 8.26918067,17.8427561 7.99034059,17.8427561 C7.73657606,17.8427561 7.55904119,17.6421518 7.40658186,17.2198795 L2.25132577,2.95885605 C1.65298228,1.33211028 1.46976703,1.02043147 0.127652116,0.894695512 C-0.0248072092,0.732205969 -0.0498827561,0.163492566 0.102576569,0.00100302187 L2.01263165,0.0495097928 C2.22974557,0.053077265 2.46296059,0.0551662031 2.73952108,0.0551662031 L3.46860828,0.0505115547 C4.19139524,0.0416254078 4.91432326,0.0213142148 5.80876802,0.00100302187 C5.96022432,0.162489544 5.96022432,0.732205969 5.80876802,0.894695512 L5.47426061,0.936592866 C4.06773791,1.13968092 3.97773429,1.56045993 4.52590304,3.06021974 L8.56005702,14.0794181 L8.67640756,14.0794181 L12.6804709,3.22270928 C13.2241087,1.74927015 13.2130755,1.02910044 11.3364216,0.894695512 C11.1849653,0.731202947 11.1849653,0.161486522 11.3374246,0 L13.7591357,0.0517441746 L13.7591357,0.0517441746 L14.1017529,0.0541631812 L14.6495864,0.0475823547 C15.1000706,0.0379142269 15.623638,0.0189571134 16.3334765,0 Z M84.4821589,5.26586484 L86.2151535,5.31003111 C86.4343608,5.31415682 86.6606832,5.31722466 86.9083513,5.31881147 L87.5347914,5.31826942 C88.232385,5.30965196 89.8513575,5.27234396 90.5368667,5.26740786 L90.6687978,5.26686787 C94.9045592,5.26686787 96.9838236,8.08335329 96.9838236,11.6831988 C96.9838236,16.4214741 93.83935,17.8287138 91.0248706,17.8287138 L89.405974,17.8159212 C88.5835801,17.8023706 88.0333256,17.7821314 87.5687472,17.7762247 L87.3227169,17.7745506 C86.2073565,17.7745506 85.5463651,17.8016322 84.4821589,17.8287138 C84.3307026,17.6662243 84.3307026,17.0975109 84.4821589,16.9350213 L84.8964652,16.8952194 C86.0801763,16.7636079 86.3076587,16.5009394 86.3076587,14.4715996 L86.3076587,8.62297906 C86.3076587,6.37621006 86.0288186,6.2678837 84.4821589,6.15955733 C84.3307026,5.99706779 84.3307026,5.42835439 84.4821589,5.26586484 Z M41.98011,5.26586484 C42.1315663,5.42835439 42.1315663,5.99706779 41.98011,6.15955733 C40.9660549,6.21372052 40.0352506,6.35113451 39.2659328,7.29698414 L37.0853632,9.97705859 C36.6540638,10.4645272 36.5016045,10.7624247 36.5016045,10.9790774 C36.5016045,11.141567 36.6029097,11.2769749 36.7302935,11.4394645 L40.4836013,16.1506582 C40.8156016,16.5618972 41.4224298,16.8537766 42.1064907,16.9350213 C42.257947,17.0975109 42.257947,17.6391427 42.1064907,17.8016322 L40.7202155,17.7783431 L40.7202155,17.7783431 L40.1536071,17.7745506 C39.4936187,17.7745506 38.8597089,17.8016322 38.5808688,17.8287138 L38.5808688,17.4495716 C38.5808688,17.1366287 38.5610561,16.867274 38.3072764,16.5069566 L35.3862442,12.6300514 C35.0060989,12.0884196 34.371186,11.9530117 33.8135059,11.9530117 L33.8135059,14.4715996 C33.8135059,16.7183686 34.0421949,16.7996134 35.2588604,16.9350213 C35.4103167,17.0975109 35.4103167,17.6662243 35.2588604,17.8287138 L33.5578597,17.781321 C33.4122048,17.7784925 33.2598739,17.7764263 33.0911416,17.7753631 L32.8245263,17.7745506 C31.708163,17.7745506 31.0491776,17.8016322 29.9839684,17.8287138 C29.832512,17.6662243 29.832512,17.0975109 29.9839684,16.9350213 L30.398301,16.8952194 C31.5821705,16.7636079 31.8104712,16.5009394 31.8104712,14.4715996 L31.8104712,8.62297906 C31.8104712,6.37721308 31.5306281,6.29596831 29.9839684,6.16056036 C29.832512,5.99807081 29.832512,5.42935741 29.9839684,5.26686787 L31.7160324,5.31103413 C31.9397258,5.31515984 32.1717648,5.31822768 32.4256429,5.31981449 L32.8245263,5.32103105 C33.7633548,5.32103105 34.1685756,5.29495248 35.2588604,5.26686787 C35.4103167,5.42935741 35.4103167,5.99807081 35.2588604,6.16056036 L35.0283006,6.18757746 C34.0118456,6.3164255 33.8135059,6.52699768 33.8135059,8.62398208 L33.8135059,11.0332406 C34.6500261,11.0332406 35.3932653,10.6059533 36.4765289,9.30001882 L36.9413608,8.73016426 C38.461736,6.82879318 38.5745068,6.23383827 37.4153574,6.15955733 C37.2628981,5.99706779 37.2628981,5.42835439 37.4153574,5.26586484 L39.2865613,5.31003111 C39.6211906,5.31621968 39.9290556,5.32002802 40.2047613,5.32002802 L40.8056828,5.31222674 C41.1794756,5.30241942 41.5234007,5.28458792 41.98011,5.26586484 Z M61.8610066,5.26586484 C65.4628581,5.26586484 66.2231487,7.16157619 66.2231487,8.56881588 C66.2231487,10.1937113 65.184018,12.792541 61.7847769,12.792541 C61.1508671,12.792541 60.643338,12.6852177 60.1869631,12.4675619 L60.1869631,14.4715996 C60.1869631,16.7183686 60.4658031,16.827698 62.0124629,16.9350213 C62.1649222,17.0975109 62.1649222,17.6662243 62.0124629,17.8287138 L60.280154,17.784812 C59.9515193,17.7785 59.6068403,17.7745506 59.1979835,17.7745506 L58.4328345,17.7792053 C57.7263623,17.7880914 57.1555802,17.8084026 56.3574255,17.8287138 C56.2049662,17.6662243 56.2049662,17.0975109 56.3574255,16.9350213 L56.7717318,16.8952194 C57.9554429,16.7636079 58.1829253,16.5009394 58.1829253,14.4715996 L58.1829253,8.62297906 C58.1829253,6.37621006 57.9040853,6.2678837 56.3574255,6.15955733 C56.2049662,5.99706779 56.2049662,5.42835439 56.3574255,5.26586484 L58.0899793,5.31003111 C58.4187609,5.31621968 58.763675,5.32002802 59.1729079,5.32002802 L59.6802499,5.31319262 C60.3247609,5.29863022 61.1308066,5.26586484 61.8610066,5.26586484 Z M106.885656,4.05020233 C107.038115,4.21269187 107.038115,4.78140528 106.885656,4.94389482 L106.471349,4.98369679 C105.287638,5.11530823 105.060156,5.3779768 105.060156,7.40731655 L105.060156,14.4645785 C105.060156,16.7113475 105.338996,16.8206768 106.885656,16.9280002 C107.038115,17.0904897 107.038115,17.6592031 106.885656,17.8216927 L105.153102,17.7777909 C104.82432,17.7714789 104.479406,17.7675295 104.070173,17.7675295 L103.305604,17.7721841 C102.599555,17.7810703 102.028773,17.8013815 101.230618,17.8216927 C101.078159,17.6592031 101.078159,17.0904897 101.230618,16.9280002 L101.644924,16.8881982 C102.828636,16.7565868 103.056118,16.4939182 103.056118,14.4645785 L103.056118,7.40731655 C103.056118,5.16054755 102.777278,5.05222118 101.230618,4.94389482 C101.078159,4.78140528 101.078159,4.21269187 101.230618,4.05020233 L102.962927,4.0943686 C103.291562,4.10055716 103.636241,4.10436551 104.045098,4.10436551 L104.810247,4.09985191 C105.516719,4.09120085 106.087501,4.07126579 106.885656,4.05020233 Z M25.610793,5.20391821 C25.7632523,5.36640776 25.7632523,5.93512116 25.610793,6.0976107 L25.1964867,6.13741267 C24.0127756,6.26902411 23.7852932,6.53169269 23.7852932,8.56103243 L23.7842901,14.409653 C23.7842901,16.656422 24.0631302,16.7657514 25.60979,16.8730747 C25.7622493,17.0355642 25.7622493,17.6042777 25.60979,17.7667672 L23.8774811,17.7228654 C23.6583913,17.7186574 23.4321707,17.7154995 23.1845575,17.7138617 L22.7953106,17.712604 C21.6789472,17.712604 21.0199619,17.7396856 19.9547526,17.7667672 C19.8032963,17.6042777 19.8032963,17.0355642 19.9547526,16.8730747 L20.3690589,16.8332727 C21.55277,16.7016613 21.7802524,16.4389927 21.7802524,14.409653 L21.7802524,8.56103243 C21.7802524,6.31426343 21.5014124,6.20593707 19.9547526,6.0976107 C19.8032963,5.93512116 19.8032963,5.36640776 19.9547526,5.20391821 L21.6873064,5.24808448 C21.9064941,5.25221019 22.1328518,5.25527803 22.380657,5.25686484 L22.770235,5.25808139 C23.8855954,5.25808139 24.5455837,5.23200283 25.610793,5.20391821 Z M52.0344013,5.20367749 C52.1868606,5.36616703 52.1868606,5.93488043 52.0344013,6.09736998 L51.620095,6.13717194 C50.4363839,6.26878339 50.2089014,6.53145196 50.2089014,8.5607917 L50.2078984,14.4094123 C50.2078984,16.6561813 50.4867385,16.7655106 52.0333982,16.872834 C52.1858576,17.0353235 52.1858576,17.6040369 52.0333982,17.7665265 L50.3010893,17.7226247 C49.9724547,17.7163127 49.6277756,17.7123633 49.2189188,17.7123633 L48.4539109,17.7170179 C47.7476738,17.7259041 47.1772678,17.7462153 46.3783609,17.7665265 C46.2269046,17.6040369 46.2269046,17.0353235 46.3783609,16.872834 L46.7926935,16.833032 C47.976563,16.7014206 48.2048637,16.438752 48.2048637,14.4094123 L48.2048637,8.5607917 C48.2048637,6.3140227 47.9260237,6.20569634 46.3783609,6.09736998 C46.2269046,5.93488043 46.2269046,5.36616703 46.3783609,5.20367749 L47.785726,5.24091467 C48.2169,5.25107027 48.6481994,5.25784067 49.1938433,5.25784067 L49.9584281,5.25332707 C50.6645241,5.24467601 51.2354943,5.22474095 52.0344013,5.20367749 Z M89.9335828,6.16056036 C88.9456063,6.16056036 88.3106934,6.3230499 88.3106934,7.00008967 L88.3106934,15.7173528 C88.3106934,16.4756373 88.4892313,16.9360244 90.4150333,16.9360244 C93.2044371,16.9360244 94.7781785,15.9340055 94.7781785,12.1445889 L94.7749143,11.7909543 C94.7231481,9.06964072 94.0168849,6.16056036 89.9335828,6.16056036 Z M61.7095503,6.15955733 C60.4918817,6.15955733 60.1869631,6.51161801 60.1869631,7.37822891 L60.1869631,11.601954 C60.6944921,11.8186068 61.3284019,11.8998515 61.835931,11.8998515 C63.3585182,11.8998515 64.0175036,10.8466786 64.0175036,8.89479799 C64.0175036,6.99607758 63.2050559,6.15955733 61.7095503,6.15955733 Z M22.7716075,1.40423062 C23.4566715,1.40423062 23.9892761,2.16151214 23.9892761,2.81147032 C23.9892761,3.38218976 23.3804418,4.11138667 22.6703023,4.11138667 C22.061468,4.11138667 21.4536347,3.40726531 21.4536347,2.70314395 C21.4526338,2.0541888 22.1627732,1.40423062 22.7716075,1.40423062 Z M49.1009317,1.40423062 C49.7859957,1.40423062 50.3186003,2.05318578 50.3186003,2.70314395 C50.3186003,3.2738634 49.709766,4.11138667 48.9996265,4.11138667 C48.3917953,4.11138667 47.7829589,3.40726531 47.7829589,2.70314395 C47.781958,2.0541888 48.4920975,1.40423062 49.1009317,1.40423062 Z M104.01738,0.250755469 C104.702444,0.250755469 105.234046,1.00803698 105.234046,1.65799516 C105.234046,2.22871461 104.626215,2.95791151 103.916075,2.95791151 C103.308244,2.95791151 102.698407,2.25379015 102.698407,1.5496688 C102.698407,0.900713644 103.408546,0.250755469 104.01738,0.250755469 Z"/>
	</g>
</svg>

<svg xmlns="http://www.w3.org/2000/svg" width="107" height="18"><path fill="#000" fill-rule="nonzero" d="M79.472 5.266c.05 0 .075.026.075.081l.036.19c.098.578.334 2.243.42 3.032a1.172 1.172 0 0 1-.684.135l-.168-.547c-.39-1.205-.814-1.89-2.19-1.89h-1.953c-.482 0-.813.298-.813.758v3.845h1.446l.353-.01c1.412-.06 1.35-.375 1.397-1.507.126-.135.583-.135.71 0l-.039 1.061c-.007.262-.012.537-.012.862l.005.586c.01.449.027.83.046 1.39-.127.136-.584.136-.71 0l-.02-.412c-.043-.73-.197-1.104-1.73-1.104h-1.444v4.06c0 .515.355 1.192.813 1.192h2.105c1.598 0 2.333-1.354 2.738-2.95.28-.082.482-.027.71.108-.177 1.137-.456 2.626-.76 3.736l-1.884-.047a50.618 50.618 0 0 0-.805-.007l-4.152.004c-.524.008-1.772.029-2.594.05-.152-.163-.152-.731 0-.894l.414-.04c1.184-.131 1.411-.394 1.411-2.423V8.676c0-2.247-.279-2.355-1.825-2.463-.152-.163-.152-.731 0-.894l2.774.054h5.29c.507 0 .685-.054 1.04-.107zM16.333 0c.153.161.153.731 0 .894-1.455.188-1.896.984-2.306 2.03L8.599 17.22c-.147.387-.33.623-.609.623-.253 0-.431-.2-.583-.623L2.25 2.959C1.653 1.332 1.47 1.02.128.895-.025.732-.05.163.103 0l1.91.049c.217.003.45.005.727.005l.729-.004C4.19.04 4.914.02 5.809 0c.151.161.151.731 0 .894l-.335.042c-1.406.203-1.496.623-.948 2.123L8.56 14.08h.116L12.68 3.222c.544-1.474.533-2.194-1.344-2.328-.151-.164-.151-.734.001-.895l2.422.052.343.002.548-.006c.45-.01.974-.029 1.683-.048zm68.15 5.266 1.732.044c.22.004.446.007.693.009h.627c.697-.01 2.316-.047 3.002-.052h.132c4.236 0 6.315 2.816 6.315 6.416 0 4.738-3.145 6.146-5.96 6.146l-1.618-.013c-.822-.014-1.373-.034-1.837-.04l-.246-.001c-1.116 0-1.777.027-2.84.054-.152-.163-.152-.731 0-.894l.413-.04c1.184-.131 1.412-.394 1.412-2.423V8.623c0-2.247-.28-2.355-1.826-2.463-.151-.163-.151-.732 0-.894zm-42.503 0c.152.162.152.731 0 .894-1.014.054-1.945.191-2.714 1.137l-2.18 2.68c-.432.488-.584.785-.584 1.002 0 .163.1.298.228.46l3.754 4.712c.332.41.938.703 1.622.784.152.163.152.704 0 .867l-1.386-.024-.566-.003c-.66 0-1.294.027-1.573.054v-.38c0-.312-.02-.582-.274-.942l-2.92-3.877c-.38-.542-1.016-.677-1.573-.677v2.519c0 2.246.228 2.328 1.445 2.463.151.163.151.731 0 .894l-1.701-.048a35.21 35.21 0 0 0-.467-.006h-.266c-1.117 0-1.776.027-2.841.054-.151-.163-.151-.731 0-.894l.414-.04c1.184-.131 1.412-.394 1.412-2.423V8.623c0-2.246-.28-2.327-1.826-2.462-.151-.163-.151-.732 0-.894l1.732.044c.224.004.456.007.71.009l.399.001c.938 0 1.344-.026 2.434-.054.151.162.151.731 0 .894l-.23.027c-1.017.128-1.215.339-1.215 2.436v2.41c.836 0 1.58-.428 2.663-1.734l.464-.57c1.52-1.901 1.634-2.496.474-2.57-.152-.163-.152-.732 0-.894l1.872.044c.334.006.642.01.918.01l.6-.008c.374-.01.718-.027 1.175-.046zm19.881 0c3.602 0 4.362 1.896 4.362 3.303 0 1.625-1.039 4.224-4.438 4.224-.634 0-1.142-.108-1.598-.325v2.004c0 2.246.279 2.356 1.825 2.463.153.163.153.731 0 .894l-1.732-.044c-.328-.006-.673-.01-1.082-.01l-.765.004c-.707.01-1.277.03-2.076.05-.152-.163-.152-.731 0-.894l.415-.04c1.183-.131 1.41-.394 1.41-2.423V8.623c0-2.247-.278-2.355-1.825-2.463-.152-.163-.152-.732 0-.894l1.733.044c.329.006.674.01 1.083.01l.507-.007c.645-.014 1.45-.047 2.181-.047zm45.025-1.216c.152.163.152.731 0 .894l-.415.04c-1.183.131-1.41.394-1.41 2.423v7.058c0 2.246.278 2.356 1.825 2.463.152.162.152.731 0 .894l-1.733-.044c-.329-.007-.674-.01-1.083-.01l-.764.004c-.706.01-1.277.03-2.075.05-.153-.163-.153-.732 0-.894l.414-.04c1.184-.131 1.411-.394 1.411-2.423V7.407c0-2.246-.279-2.355-1.825-2.463-.153-.163-.153-.731 0-.894l1.732.044c.329.007.673.01 1.082.01l.765-.004c.707-.009 1.278-.029 2.076-.05zM25.61 5.204c.152.162.152.731 0 .894l-.415.04c-1.183.131-1.41.394-1.41 2.423l-.002 5.849c0 2.246.28 2.356 1.826 2.463.152.163.152.731 0 .894l-1.733-.044c-.219-.004-.445-.008-.692-.01h-.39c-1.116 0-1.775.027-2.84.054-.152-.163-.152-.731 0-.894l.414-.04c1.184-.131 1.411-.394 1.411-2.423V8.56c0-2.247-.279-2.355-1.825-2.463-.152-.163-.152-.732 0-.894l1.732.044c.22.004.446.007.694.009l.39.001c1.115 0 1.775-.026 2.84-.054zm26.423 0c.153.162.153.73 0 .893l-.414.04c-1.184.132-1.411.394-1.411 2.424l-.001 5.848c0 2.247.279 2.357 1.825 2.464.153.162.153.731 0 .894l-1.732-.044c-.329-.007-.673-.01-1.082-.01l-.765.004c-.706.009-1.277.03-2.076.05-.151-.163-.151-.732 0-.894l.415-.04c1.184-.132 1.412-.394 1.412-2.424V8.561c0-2.247-.279-2.355-1.827-2.464-.151-.162-.151-.73 0-.893l1.408.037c.43.01.862.017 1.408.017l.764-.005c.707-.008 1.277-.028 2.076-.05zm37.9.957c-.988 0-1.623.162-1.623.84v8.716c0 .759.178 1.219 2.104 1.219 2.79 0 4.363-1.002 4.363-4.791l-.003-.354c-.052-2.721-.758-5.63-4.841-5.63zM61.71 6.16c-1.218 0-1.523.352-1.523 1.218v4.224c.507.217 1.141.298 1.649.298 1.523 0 2.182-1.053 2.182-3.005 0-1.899-.813-2.735-2.308-2.735zM22.772 1.404c.685 0 1.217.758 1.217 1.407 0 .571-.609 1.3-1.319 1.3-.609 0-1.216-.704-1.216-1.408-.001-.649.709-1.299 1.318-1.299zm26.329 0c.685 0 1.218.65 1.218 1.3 0 .57-.61 1.407-1.32 1.407-.607 0-1.216-.704-1.216-1.408-.001-.649.71-1.299 1.318-1.299zM104.017.251c.685 0 1.217.757 1.217 1.407 0 .57-.608 1.3-1.318 1.3-.608 0-1.218-.704-1.218-1.408 0-.65.71-1.3 1.32-1.3z"/></svg>
